modules/themify-icons/icons/new-window.svg

<?xml version="1.0" encoding="utf-8"?>
<!-- Generated by IcoMoon.io -->
<!DOCTYPE svg PUBLIC "-//W3C//DTD SVG 1.1//EN" "http://www.w3.org/Graphics/SVG/1.1/DTD/svg11.dtd">
<svg version="1.1" xmlns="http://www.w3.org/2000/svg" xmlns:xlink="http://www.w3.org/1999/xlink" width="17" height="17" viewBox="0 0 17 17">
<g>
</g>
	<path d="M15 2v7.5h-1v-5.668l-9.334 9.334-0.707-0.707 9.459-9.459h-5.918v-1h7.5zM11 16h-10v-10h6.574v-1h-7.574v12h12v-7.714h-1v6.714z" fill="#000000" />
</svg>

<svg xmlns="http://www.w3.org/2000/svg" width="17" height="17"><path d="M15 2v7.5h-1V3.832l-9.334 9.334-.707-.707L13.418 3H7.5V2H15zm-4 14H1V6h6.574V5H0v12h12V9.286h-1V16z"/></svg>
